src/scalable/places/folder-paint.svg

<svg xmlns="http://www.w3.org/2000/svg" xmlns:xlink="http://www.w3.org/1999/xlink" width="64" height="64"><defs><linearGradient id="a"><stop offset="0"/><stop offset="1" stop-opacity="0"/></linearGradient><linearGradient xlink:href="#a" id="b" x1="31" x2="31" y1="1005.4" y2="1003.4" gradientTransform="matrix(.92593 0 0 1 2.37 -988.4)" gradientUnits="userSpaceOnUse"/></defs><path fill="#d0a15c" d="M13 8c-1.108 0-2 .892-2 2H9c-.99 0-2 .892-2 2v6c0 1.108 1.01 2 2 2h46c.99 0 2-.892 2-2v-6c0-1.108-1.01-2-2-2H31c0-1.108-.892-2-2-2z"/><rect width="46" height="9" x="9" y="12" opacity=".06" rx="2" ry="2"/><rect width="44" height="7" x="10" y="13" fill="#fff" rx="1" ry="1"/><rect width="56" height="39" x="4" y="17" fill="#d0a15c" rx="2" ry="2"/><rect width="50" height="2" x="7" y="15" fill="url(#b)" opacity=".1" ry="0"/><rect width="56" height="38" x="4" y="17" fill="#f4be70" rx="2" ry="2"/><rect width="50" height="5" x="7" y="56" fill="url(#d)" opacity=".1" ry="0"/><path fill="#fff" d="M6 17c-1.108 0-2 .892-2 2v1c0-1.108.892-2 2-2h52c1.108 0 2 .892 2 2v-1c0-1.108-.892-2-2-2zm7-9c-1.108 0-2 .892-2 2H9c-.99 0-2 .892-2 2v1c0-1.108 1.01-2 2-2h2c0-1.108.892-2 2-2h16c1.108 0 2 .892 2 2h24c.99 0 2 .892 2 2v-1c0-1.108-1.01-2-2-2H31c0-1.108-.892-2-2-2z" opacity=".15"/><path d="M45.7 20.8c-1.8.2-16.2 15.3-16.2 15.3l-4.6 5.1c-.6.2-1.748.022-2.4.3-1.6.6-2.6 1.279-3.4 3.5-.7 1.9 1.3 5.16 3 4.6-.8 0-1.8-1.1-1.3-1.9 1-1.9 4.95-1.483 4.8-5.7l5-4.7S46.9 22 45.9 21h-.1zm-5.3 15.3c-.6 0-1.6 1-3.6 4-1.9 3.2-6.9 5.4-6.6 2.3.1-.8-1.8-.5-3.6-.5 0 5.4-3.069 4-4.9 6.3-.2 1.8 8.2 2.877 12.7-.2 5.4-3.7 6.5-8.7 6.6-10.4 0-.9-.2-1.5-.6-1.5M33.3 40c0 .3-.7.1-1 .3-.7.4-1.024 1-.8 1.4.2.4.9.4 1.6 0s1.024-1 .8-1.4q-.15-.3-.6-.3" class="ColorScheme-Text" style="fill:#fff"/></svg>

<?xml version="1.0" encoding="UTF-8"?>
<svg xmlns="http://www.w3.org/2000/svg" viewBox="0 0 64 64">
 <defs>
  <linearGradient id="a">
   <stop offset="0"/>
   <stop stop-opacity="0" offset="1"/>
  </linearGradient>
  <linearGradient id="b" x1="31" x2="31" y1="1005.4" y2="1003.4" gradientTransform="matrix(.92593 0 0 1 2.37 -988.4)" gradientUnits="userSpaceOnUse" xlink:href="#a"/>
  <radialGradient id="d" cx="32" cy="1021.9" r="25" gradientTransform="matrix(-1 0 0 -.08 64 137.7)" gradientUnits="userSpaceOnUse" xlink:href="#a"/>
 </defs>
 <path d="M13 8c-1.108 0-2 .892-2 2H9c-.99 0-2 .892-2 2v6c0 1.108 1.01 2 2 2h46c.99 0 2-.892 2-2v-6c0-1.108-1.01-2-2-2H31c0-1.108-.892-2-2-2z" fill="#d0a15c"/>
 <rect x="9" y="12" width="46" height="9" rx="2" ry="2" opacity=".06"/>
 <rect x="10" y="13" width="44" height="7" rx="1" ry="1" fill="#fff"/>
 <rect x="4" y="17" width="56" height="39" rx="2" ry="2" fill="#d0a15c"/>
 <rect x="7" y="15" width="50" height="2" ry="0" fill="url(#b)" opacity=".1"/>
 <rect x="4" y="17" width="56" height="38" rx="2" ry="2" fill="#f4be70"/>
 <rect x="7" y="56" width="50" height="5" ry="0" fill="url(#d)" opacity=".1"/>
 <path d="M6 17c-1.108 0-2 .892-2 2v1c0-1.108.892-2 2-2h52c1.108 0 2 .892 2 2v-1c0-1.108-.892-2-2-2zM13 8c-1.108 0-2 .892-2 2H9c-.99 0-2 .892-2 2v1c0-1.108 1.01-2 2-2h2c0-1.108.892-2 2-2h16c1.108 0 2 .892 2 2h24c.99 0 2 .892 2 2v-1c0-1.108-1.01-2-2-2H31c0-1.108-.892-2-2-2z" fill="#fff" opacity=".15"/>
 <path style="fill:#ffffff" d="M 45.7 20.8 C 43.9 21 29.5 36.1 29.5 36.1 L 24.9 41.2 C 24.3 41.4 23.152 41.222 22.5 41.5 C 20.9 42.1 19.9 42.779 19.1 45 C 18.4 46.9 20.4 50.16 22.1 49.6 C 21.3 49.6 20.3 48.5 20.8 47.7 C 21.8 45.8 25.75 46.217 25.6 42 L 30.6 37.3 C 30.6 37.3 46.9 22 45.9 21 L 45.8 21 L 45.7 20.8 z M 40.4 36.1 C 39.8 36.1 38.8 37.1 36.8 40.1 C 34.9 43.3 29.9 45.5 30.2 42.4 C 30.3 41.6 28.4 41.9 26.6 41.9 C 26.6 47.3 23.531172 45.9 21.7 48.2 C 21.5 50 29.9 51.077 34.4 48 C 39.8 44.3 40.9 39.3 41 37.6 C 41 36.7 40.8 36.1 40.4 36.1 z M 33.3 40 C 33.3 40.3 32.6 40.1 32.3 40.3 C 31.6 40.7 31.276 41.299219 31.5 41.7 C 31.7 42.1 32.4 42.1 33.1 41.7 C 33.8 41.3 34.124391 40.7 33.9 40.3 C 33.8 40.1 33.6 40 33.3 40 z " class="ColorScheme-Text"/>
</svg>
